X: 1
T: Oot Be Est da Vong
O: Shetland
R: reel
S: Ed Pearlman, Fiddle Hell 2016
Z: 2016 John Chambers <jc:trillian.mit.edu>
M: C|
L: 1/8
K: D
dB "A"|\
"D"AFAB ABd2 | "D"fdfd "G"edBd |\
"D"AFAB ABde | "A"faef "D"d2 :|
ef "B"|\
"Em"g2ge "D"f2fd | "A"edef edB2 |\
"G"g2ge "D"f2fd | "Am"edef "A"a2a2 |
"G"g2ge "D"f2fd | "A"edef edBd |\
"D"AFAB ABde | "A"faef "D"d2 |]
